X:1802
T:High G Throw Scale (vili)
O:Kevin's Tune Generator
Q:1/4=78
K:HP
M:4/4
L:1/4
%%MIDI gracedivider 4
%%MIDI gchord
%%MIDI beatstring 
[|: G {gf}g A {gf}g | B {gf}g c {gf}g |   d {gf}g e {gf}g | f {gf}g  f {gf}g |   e {gf}g d {gf}g | c {gf}g B {gf}g | A {gf}g G {gf}g :]
w:
w: EM vili EN vili | O vili  O vili |  A  vili E  vili | VE vili  VE vili    |  E  vili A  vili | O vili  O vili | EN vili EM vili |
|: G>{gf}g A>{gf}g | B>{gf}g c>{gf}g |  d>{gf}g e>{gf}g | f>{gf}g f>{gf}g | 
w: EM vili EN vili | O vili  O vili |A  vili E  vili | VE vili  VE vili |
|  e>{gf}g d>{gf}g | c>{gf}g B>{gf}g |  A>{gf}g G>{gf}g :|
w: E  vili A  vili | O vili  O vili |EN vili EM vili :|
|: G<{gf}g A<{gf}g | B<{gf}g c<{gf}g |  d<{gf}g e<{gf}g | f<{gf}g f<{gf}g | 
w: EM vili EN vili | O vili  O vili |A  vili E  vili | VE vili  VE vili |
|  e<{gf}g d<{gf}g | c<{gf}g B<{gf}g |  A<{gf}g G<{gf}g :|
w: E  vili A  vili | O vili  O vili |EN vili EM vili :|

